www/assets/icons/do_disturb_off.svg

<svg width="24" height="24" viewBox="0 0 24 24" xmlns="http://www.w3.org/2000/svg" fill='currentColor'><path d="M17.305 10.6951V12.6951H16.135L20.645 17.2051C21.695 15.6251 22.305 13.7351 22.305 11.6951C22.305 6.17507 17.825 1.69507 12.305 1.69507C10.265 1.69507 8.37501 2.30507 6.79501 3.35507L14.135 10.6951H17.305ZM1.69501 3.91507L3.96501 6.18507C2.91501 7.76507 2.30501 9.65507 2.30501 11.6951C2.30501 17.2151 6.78501 21.6951 12.305 21.6951C14.345 21.6951 16.235 21.0851 17.815 20.0351L20.085 22.3051L21.495 20.8951L3.11501 2.50507L1.69501 3.91507ZM7.30501 10.6951H8.47501L10.475 12.6951H7.30501V10.6951Z"/></svg>

<svg xmlns="http://www.w3.org/2000/svg" width="24" height="24" viewBox="0 0 24 24" fill='currentColor'><path d="M17.305 10.695v2h-1.17l4.51 4.51a9.9 9.9 0 0 0 1.66-5.51c0-5.52-4.48-10-10-10-2.04 0-3.93.61-5.51 1.66l7.34 7.34zm-15.61-6.78 2.27 2.27a9.9 9.9 0 0 0-1.66 5.51c0 5.52 4.48 10 10 10 2.04 0 3.93-.61 5.51-1.66l2.27 2.27 1.41-1.41-18.38-18.39zm5.61 6.78h1.17l2 2h-3.17z"/></svg>
